;FLAVOR:Marlin
;TIME:22192
;Filament used:13.3044m
;Layer height: 0.15
;MINX:82.201
;MINY:65.33
;MINZ:0.24
;MAXX:128.707
;MAXY:154.67
;MAXZ:86.84
                             
;Creality Print GCode Generated by CXEngine:NO_MAGE_VERSION_GIT_HEAD_BRANCH
;CXEngine Release Time:2022-08-30 19:45:28
;Gcode Generated Time:2024-09-20 18:31:38
;----------Machine Config--------------
;Machine Name:Creality Ender-3
;Machine Height:250
;Machine Width:220
;Machine Depth:220
;Material name:cxsw
;Number of Extruders:1
;ExtruderParams[0] Nozzle Diameter1000
;----------Profile Config---------------
;Engine Version:9c786ab
;Engine Release Time:2022-08-30 19:36:37
;Layer Height:0.15
;Wall Thickness:0.8
;Top/Bottom Thickness:1
;Out Wall Line Width:0.4
;Inner Wall Line Width:0.4
;Inital Layer Height:150
;Wall Line Count:2
;Infill Line Distance:2
;Infill Pattern:grid
;Infill Sparse Density:20
;Infill Wipe Distance:0
;Print Temperature:200
;Bed Temperature:50
;Support Enable:false
;Support Density:30
;Support Angle:60
;Adhesion Type:simpleraft
;machine is belt:false
;machine belt offset:10
;machine belt offset Y:0
;Raft Base Line Spacing:1.6
;Wait Heatup Sync:true
;----------Shell Config----------------
;Outer Wall Wipe Distance:200
;Outer Inset First:false
;Infill Before Walls:false
;Infill Overlap:0.16
;Fill Gaps Between Walls:everywhere
;Minimum Infill Area:1
;Top Surface Skin Layer:0
;Top Layers:4
;Z Seam Alignment:sharpest_corner
;Seam Corner Preference:z_seam_corner_inner
;Z Seam X:110
;Z Seam Y:110
;Horizontal Expansion:0
;Top/Bottom Pattern:zigzag
;Ironing Pattern:zigzag
;Vase Model:false
;----------Support Config----------------
;Support Type:everywhere
;Support Pattern:zigzag
;Support Infill Layer Thickness:0.15
;Minimum Support Area:5
;Enable Support Roof:false
;Support Roof Thickness:0.8
;Support Roof Pattern:lines
;Connect Support Lines:0
;Connect Support ZigZags:1
;Minimum Support X/Y Distance:0.2
;Support Line Distance:1.33
; ---------PrintSpeed & Travel----------
;Enable Print Cool:true
;Avoid Printed Parts Traveling:true
;Enable Retraction:true
;Retraction Distance:8
;Retraction Speed:100
;Retraction Prime Speed:100
;Maximum Retraction Count:100
;Minimum Extrusion Distance Window:1
;Z Hop When Retracted:false
;Z Hop Height:0.2
;Retract Before Outer Wall:true
;Print Speed:50
;Infill Speed:50

;Prime Tower Speed:50
;Travel Speed:120
;Initial Layer Speed:25
;Skirt/Brim Speed:25
;Combing Mode:infill
; --------SpecialModel&Mesh Fixes--------
;Union Overlapping Volum:true
;Remove All Holes:false
;Maximum Travel Resolution:0.6
;Maximum Deviation:0.05
;Maximum Model Angle:0.872665
;IS Mold Print:false
;Make Overhang Printable:false
;Enable Coasting:false
;Coasting Volumes:0.06
;Coasting Speed:0.9
;Raft AirGap:0.25
;Layer0 ZOverLap:0.13
;---------------------End of Head--------------------------
M140 S50
M105
M104 S200
M105
M109 S200
M105
M190 S50
M82 ;absolute extrusion mode
M220 S100 ;Reset Feedrate
M221 S100 ;Reset Flowrate

G28 ;Home

G92 E0 ;Reset Extruder
G1 Z2.0 F3000 ;Move Z Axis up
G1 X10.1 Y20 Z0.28 F5000.0 ;Move to start position
G1 X10.1 Y145.0 Z0.28 F1500.0 E15 ;Draw the first line
G1 X10.4 Y145.0 Z0.28 F5000.0 ;Move to side a little
G1 X10.4 Y20 Z0.28 F1500.0 E30 ;Draw the second line
G92 E0  ;Reset Extruder
G1 E-1.0000 F1800 ;Retract a bit
G1 Z2.0 F3000 ;Move Z Axis up
G1 E0.0000 F1800 

G92 E0
G92 E0
G1 F6000 E-8

;LAYER_COUNT:573

;LAYER:-4
M107
G0 F7200 X84.8 Y69.699 Z0.24
;TYPE:SUPPORT-INTERFACE
G1 F6000 E0
G1 F1200 X84.8 Y104.973 E3.0973
G1 X84.283 Y104.265 E3.17427
G1 X83.882 Y103.583 E3.24374
G1 X83.516 Y102.807 E3.31908
G1 X83.234 Y102.039 E3.39092
G1 X83.2 Y101.911 E3.40255
G1 X83.2 Y72.755 E5.96264
G1 X83.418 Y72.103 E6.023
G1 X83.747 Y71.354 E6.09484
G1 X84.158 Y70.605 E6.16985
G1 X84.62 Y69.922 E6.24226
G1 X85.119 Y69.306 E6.31187
G1 X85.701 Y68.706 E6.38527
G1 X86.337 Y68.161 E6.45881
G1 X86.4 Y68.116 E6.46561
G1 X86.4 Y106.854 E9.86707
G1 X86.725 Y107.413 E9.92384
G1 X87.01 Y108.089 E9.98826
G1 X87.206 Y108.796 E10.05268
G1 X87.311 Y109.521 E10.117
G1 X87.325 Y110.255 E10.18147
G1 X87.247 Y110.984 E10.24584
G1 X87.076 Y111.699 E10.31039
G1 X86.817 Y112.384 E10.3747
G1 X86.475 Y113.033 E10.43911
G1 X86.4 Y113.139 E10.45051
G1 X86.4 Y151.88 E13.85224
G1 X85.903 Y151.478 E13.90837
G1 X85.298 Y150.89 E13.98244
G1 X84.8 Y150.309 E14.04964
G1 X84.8 Y115.027 E17.14763
G1 X84.62 Y115.25 E17.1728
G1 X84.158 Y115.933 E17.2452
G1 X83.747 Y116.682 E17.32022
G1 X83.418 Y117.431 E17.39205
G1 X83.161 Y118.2 E17.46325
G1 X82.973 Y118.991 E17.53464
G1 X82.849 Y119.834 E17.60945
G1 X82.804 Y120.683 E17.68411
G1 X82.801 Y144.584 E19.78278
G1 X82.882 Y145.773 E19.88742
G1 X83.019 Y146.56 E19.95756
G1 X83.2 Y147.239 E20.01927
G1 X83.2 Y118.083 E22.57936
;;retract;;
G1 F6000 E14.57936
G0 F7200 X115.2 Y148.748
G1 F6000 E22.57936
G1 F1200 X115.2 Y71.259 E29.38342
G1 X115.486 Y71.865 E29.44226
G1 X115.768 Y72.633 E29.5141
G1 X115.983 Y73.441 E29.58751
G1 X116.118 Y74.21 E29.65607
G1 X116.2 Y75.373 E29.75844
G1 X116.201 Y83.553 E30.4767
G1 X116.292 Y85.192 E30.62084
G1 X116.29 Y134.901 E34.98562
G1 X116.201 Y136.442 E35.12116
G1 X116.198 Y144.645 E35.84144
G1 X116.153 Y145.494 E35.91609
G1 X116.029 Y146.335 E35.99073
G1 X115.84 Y147.129 E36.0624
G1 X115.584 Y147.897 E36.13348
G1 X115.253 Y148.651 E36.20579
G1 X114.852 Y149.383 E36.27908
G1 X114.388 Y150.071 E36.35194
G1 X113.883 Y150.694 E36.42236
G1 X113.6 Y150.986 E36.45807
G1 X113.6 Y69.008 E43.65629
G1 X113.098 Y68.521 E43.7177
G1 X112.483 Y68.023 E43.78719
G1 X112 Y67.697 E43.83835
G1 X112 Y152.312 E51.26812
G1 X111.309 Y152.72 E51.33858
G1 X110.761 Y152.985 E51.39203
G1 X110.4 Y153.123 E51.42597
G1 X110.4 Y66.864 E59.00009
G1 X110.315 Y66.826 E59.00827
G1 X109.537 Y66.566 E59.08029
G1 X108.8 Y66.39 E59.14683
G1 X108.8 Y153.607 E66.80507
G1 X108.187 Y153.715 E66.85972
G1 X107.2 Y153.783 E66.94659
G1 X107.2 Y66.216 E74.63557
G1 X107.048 Y66.207 E74.64894
G1 X105.6 Y66.207 E74.77608
G1 X105.6 Y153.795 E82.4669
G1 X104 Y153.795 E82.60739
G1 X104 Y66.207 E90.29821
G1 X102.4 Y66.207 E90.4387
G1 X102.4 Y153.795 E98.12952
G1 X100.8 Y153.794 E98.27001
G1 X100.8 Y66.206 E105.96083
G1 X99.2 Y66.206 E106.10132
G1 X99.2 Y153.794 E113.79214
G1 X97.6 Y153.794 E113.93263
G1 X97.6 Y66.206 E121.62345
G1 X96 Y66.205 E121.76394
G1 X96 Y153.793 E129.45476
G1 X94.4 Y153.793 E129.59525
G1 X94.4 Y66.205 E137.28606
G1 X92.8 Y66.205 E137.42656
G1 X92.8 Y153.793 E145.11737
G1 X91.954 Y153.793 E145.19166
G1 X91.2 Y153.752 E145.25796
G1 X91.2 Y66.258 E152.94053
G1 X90.815 Y66.285 E152.97442
G1 X90.038 Y66.422 E153.04369
G1 X89.226 Y66.638 E153.11747
G1 X88.462 Y66.919 E153.18895
G1 X88 Y67.136 E153.23377
G1 X88 Y152.871 E160.76188
G1 X88.692 Y153.175 E160.82825
G1 X89.465 Y153.434 E160.89983
G1 X89.6 Y153.466 E160.91201
G1 X89.6 Y66.538 E168.54488
G0 F600 X89.6 Y66.538 Z0.47
G0 F7200 X116.031 Y72.191
;TIME_ELAPSED:102.708851

;LAYER:-3
;TYPE:SUPPORT
G1 F1800 X110.211 Y66.37 E169.17457
G1 X110.456 Y66.452 E169.19434
G1 X111.228 Y66.79 E169.2588
G1 X112 Y67.214 E169.32618
G1 X112.727 Y67.705 E169.39329
G1 X113.364 Y68.221 E169.456
G1 X113.989 Y68.828 E169.52265
G1 X114.56 Y69.494 E169.58976
G1 X115.055 Y70.189 E169.65503
G1 X115.475 Y70.902 E169.71834
G1 X115.857 Y71.712 E169.78685
G1 X116.15 Y72.512 E169.85202
G1 X116.373 Y73.349 E169.91828
G1 X116.5 Y74.073 E169.97451
G1 X108.338 Y65.912 E170.85746
G1 X107.953 Y65.855 E170.88724
G1 X107.05 Y65.807 E170.95641
G1 X106.819 Y65.806 E170.97408
G1 X116.599 Y75.587 E172.03219
G1 X116.599 Y77.001 E172.14036
G1 X105.404 Y65.806 E173.35149
G1 X103.99 Y65.806 E173.45965
G1 X116.599 Y78.416 E174.82381
G1 X116.6 Y79.83 E174.93198
G1 X102.575 Y65.806 E176.44922
G1 X101.161 Y65.806 E176.55739
G1 X116.6 Y81.245 E178.22766
G1 X116.6 Y82.659 E178.33583
G1 X99.747 Y65.806 E180.15907
G1 X98.332 Y65.805 E180.26731
G1 X116.631 Y84.104 E182.24699
G1 X116.692 Y85.192 E182.33035
G1 X116.691 Y85.578 E182.35988
G1 X96.918 Y65.805 E184.49902
G1 X95.503 Y65.804 E184.60726
G1 X116.691 Y86.992 E186.89949
G1 X116.691 Y88.406 E187.00766
G1 X94.089 Y65.804 E189.45285
G1 X92.674 Y65.804 E189.5611
G1 X116.691 Y89.82 E192.15932
G1 X116.691 Y91.235 E192.26757
G1 X91.307 Y65.851 E195.01373
G1 X90.766 Y65.888 E195.05521
G1 X90.054 Y66.013 E195.11051
G1 X116.691 Y92.649 E197.99218
G1 X116.691 Y94.063 E198.10035
G1 X88.942 Y66.315 E201.10232
G1 X88.309 Y66.548 E201.15392
G1 X87.936 Y66.723 E201.18544
G1 X116.691 Y95.477 E204.29624
G1 X116.691 Y96.892 E204.40449
G1 X87.014 Y67.215 E207.61509
G1 X86.78 Y67.354 E207.63591
G1 X86.172 Y67.787 E207.69301
G1 X116.691 Y98.306 E210.99471
G1 X116.691 Y99.72 E211.10288
G1 X85.405 Y68.435 E214.4875
G1 X84.819 Y69.04 E214.55193
G1 X84.718 Y69.162 E214.56405
G1 X116.691 Y101.134 E218.02299
G1 X116.691 Y102.548 E218.13116
G1 X84.106 Y69.964 E221.65631
G1 X83.811 Y70.405 E221.6969
G1 X83.57 Y70.842 E221.73508
G1 X116.691 Y103.963 E225.31827
G1 X116.691 Y105.377 E225.42644
G1 X83.113 Y71.799 E229.05907
G1 X83.046 Y71.955 E229.07206
G1 X82.775 Y72.768 E229.13762
G1 X82.753 Y72.853 E229.14433
G1 X116.691 Y106.791 E232.81591
G1 X116.691 Y108.205 E232.92408
G1 X82.513 Y74.028 E236.62157
G1 X82.451 Y74.459 E236.65488
G1 X82.404 Y75.333 E236.72184
G1 X116.691 Y109.619 E240.43112
G1 X116.69 Y111.033 E240.53929
G1 X82.402 Y76.745 E244.24874
G1 X82.402 Y78.16 E244.35698
G1 X116.69 Y112.447 E248.06637
G1 X116.69 Y113.861 E248.17454
G1 X82.402 Y79.574 E251.88393
G1 X82.402 Y80.988 E251.9921
G1 X116.69 Y115.276 E255.70155
G1 X116.69 Y116.69 E255.80972
G1 X82.402 Y82.402 E259.51916
G1 X82.401 Y83.816 E259.62733
G1 X116.69 Y118.104 E263.33683
G1 X116.69 Y119.518 E263.445
G1 X82.401 Y85.23 E267.1545
G1 X82.401 Y86.644 E267.26267
G1 X116.69 Y120.932 E270.97217
G1 X116.69 Y122.347 E271.08041
G1 X82.401 Y88.058 E274.78997
G1 X82.401 Y89.473 E274.89821
G1 X116.69 Y123.761 E278.60771
G1 X116.69 Y125.175 E278.71588
G1 X82.401 Y90.887 E282.42538
G1 X82.401 Y92.3 E282.53347
G1 X116.69 Y126.589 E286.24302
G1 X116.69 Y128.004 E286.35127
G1 X82.401 Y93.714 E290.06088
G1 X82.401 Y95.129 E290.16912
G1 X116.69 Y129.418 E293.87868
G1 X116.69 Y130.832 E293.98685
G1 X82.401 Y96.543 E297.6964
G1 X82.401 Y97.957 E297.80457
G1 X116.69 Y132.246 E301.51412
G1 X116.69 Y133.66 E301.62229
G1 X82.408 Y99.378 E305.33109
G1 X82.484 Y100.494 E305.41666
G1 X82.563 Y100.947 E305.45183
G1 X116.68 Y135.065 E309.14283
G1 X116.604 Y136.403 E309.24535
G1 X83.135 Y102.934 E312.8662
G1 X83.145 Y102.96 E312.86833
G1 X83.527 Y103.77 E312.93683
G1 X83.947 Y104.483 E313.00014
G1 X84.583 Y105.354 E313.08264
G1 X85.612 Y106.461 E313.19826
G1 X86.023 Y107.001 E313.25017
G1 X86.348 Y107.561 E313.2997
G1 X116.6 Y137.813 E316.57251
G1 X116.599 Y139.227 E316.68068
G1 X86.909 Y109.536 E319.89275
G1 X86.912 Y109.554 E319.89414
G1 X86.925 Y110.237 E319.9464
G1 X86.853 Y110.895 E319.99704
G1 X116.599 Y140.64 E323.21505
G1 X116.599 Y142.054 E323.32322
G1 X86.536 Y111.992 E326.57553
G1 X86.452 Y112.219 E326.59405
G1 X86.133 Y112.823 E326.6463
G1 X86.058 Y112.928 E326.65617
G1 X116.598 Y143.468 E329.96014
G1 X116.598 Y144.645 E330.05018
G1 X116.586 Y144.87 E330.06742
G1 X85.428 Y113.712 E333.43824
G1 X84.819 Y114.368 E333.50672
G1 X84.751 Y114.45 E333.51487
G1 X116.46 Y146.158 E336.94525
G1 X116.423 Y146.408 E336.96458
G1 X116.227 Y147.232 E337.02937
G1 X116.2 Y147.312 E337.03583
G1 X84.136 Y115.249 E340.50462
G1 X83.811 Y115.733 E340.54922
G1 X83.595 Y116.122 E340.58326
G1 X115.822 Y148.349 E344.06973
G1 X115.611 Y148.83 E344.10991
G1 X115.355 Y149.296 E344.15059
G1 X83.135 Y117.076 E347.63631
G1 X83.046 Y117.283 E347.65354
G1 X82.775 Y118.096 E347.7191
G1 X82.768 Y118.123 E347.72123
G1 X114.808 Y150.164 E351.18753
G1 X114.712 Y150.307 E351.20071
G1 X114.186 Y150.955 E351.26456
G1 X82.522 Y119.292 E354.69007
G1 X82.451 Y119.787 E354.72832
G1 X82.408 Y120.592 E354.78999
G1 X113.481 Y151.665 E358.15162
G1 X112.912 Y152.154 E358.20902
G1 X112.702 Y152.3 E358.22858
G1 X82.403 Y122.001 E361.50648
G1 X82.403 Y123.415 E361.61465
G1 X111.85 Y152.863 E364.80042
G1 X111.503 Y153.07 E364.83133
G1 X110.923 Y153.349 E364.88057
G1 X82.403 Y124.829 E367.966
G1 X82.403 Y126.244 E368.07425
G1 X109.9 Y153.741 E371.04901
G0 F7200 X109.897 Y153.744
G1 F1800 X109.056 Y153.968 E371.11559
G1 X108.763 Y154.018 E371.13833
G1 X82.402 Y127.657 E373.99019
G1 X82.402 Y129.071 E374.09836
G1 X107.492 Y154.162 E376.81277
G1 X107.007 Y154.196 E376.84997
G1 X106.111 Y154.194 E376.91851
G1 X82.402 Y130.485 E379.48346
G1 X82.402 Y131.9 E379.59171
G1 X104.697 Y154.194 E382.00364
G1 X103.282 Y154.194 E382.11188
G1 X82.401 Y133.313 E384.37089
G1 X82.401 Y134.727 E384.47906
G1 X101.867 Y154.193 E386.58499
G1 X100.453 Y154.193 E386.69316
G1 X82.401 Y136.142 E388.64606
G1 X82.401 Y137.556 E388.75423
G1 X99.038 Y154.193 E390.5541
G1 X97.624 Y154.193 E390.66227
G1 X82.401 Y138.969 E392.30922
G1 X82.401 Y140.384 E392.41747
G1 X96.21 Y154.193 E393.9114
G1 X94.795 Y154.192 E394.01964
G1 X82.401 Y141.798 E395.36048
G1 X82.401 Y143.212 E395.46865
G1 X93.381 Y154.192 E396.65652
G1 X91.967 Y154.192 E396.76469
G1 X82.403 Y144.628 E397.79937
G1 X82.484 Y145.822 E397.89092
G1 X82.629 Y146.651 E397.9553
G1 X82.852 Y147.488 E398.02156
G1 X83.092 Y148.146 E398.07514
G1 X88.451 Y153.505 E398.65491
G1 X88.546 Y153.548 E398.66288
G1 X89.358 Y153.82 E398.72839
G1 X90.187 Y154.018 E398.79359
G1 X90.41 Y154.05 E398.81083
G1 X82.547 Y146.187 E399.66149
G0 F600 X82.547 Y146.187 Z0.62
G0 F7200 X109.341 Y154.107
;TIME_ELAPSED:208.603648

;LAYER:-2
;TYPE:SUPPORT-INTERFACE
G1 F2400 X109.72 Y154 E399.67131
G1 X89.264 Y154 E400.18159
G1 X88.464 Y153.731 E400.20264
G1 X88.165 Y153.6 E400.21078
G1 X110.848 Y153.6 E400.77661
G1 X111.582 Y153.254 E400.79686
G1 X111.672 Y153.2 E400.79947
G1 X87.338 Y153.2 E401.40649
G1 X86.899 Y152.958 E401.41899
G1 X86.664 Y152.8 E401.42606
G1 X112.35 Y152.8 E402.0668
G1 X112.91 Y152.4 E402.08396
G1 X86.087 Y152.4 E402.75307
G1 X85.593 Y152 E402.76892
G1 X113.398 Y152 E403.46252
G1 X113.709 Y151.735 E403.47271
G1 X113.839 Y151.6 E403.47739
G1 X85.165 Y151.6 E404.19266
G1 X84.862 Y151.304 E404.20323
G1 X84.772 Y151.2 E404.20666
G1 X114.227 Y151.2 E404.94142
G1 X114.328 Y151.098 E404.945
G1 X114.568 Y150.8 E404.95454
G1 X84.429 Y150.8 E405.70637
G1 X84.287 Y150.632 E405.71185
G1 X84.12 Y150.4 E405.71898
G1 X114.888 Y150.4 E406.48649
G1 X115.158 Y150 E406.49853
G1 X83.834 Y150 E407.27991
G1 X83.78 Y149.922 E407.28228
G1 X83.59 Y149.6 E407.29161
G1 X115.416 Y149.6 E408.08551
G1 X115.635 Y149.2 E408.09688
G1 X83.355 Y149.2 E408.90211
G1 X83.343 Y149.177 E408.90276
G1 X83.163 Y148.8 E408.91318
G1 X115.841 Y148.8 E409.72834
G1 X116.017 Y148.4 E409.73924
G1 X82.974 Y148.4 E410.5635
G1 X82.965 Y148.377 E410.56411
G1 X82.825 Y148 E410.57415
G1 X116.179 Y148 E411.40617
G1 X116.313 Y147.6 E411.41669
G1 X82.679 Y147.6 E412.25569
G1 X82.665 Y147.559 E412.25677
G1 X82.567 Y147.2 E412.26606
G1 X116.438 Y147.2 E413.11097
G1 X116.534 Y146.8 E413.12123
G1 X82.46 Y146.8 E413.97121
G1 X82.436 Y146.704 E413.97368
G1 X82.381 Y146.4 E413.98139
G1 X116.626 Y146.4 E414.83563
G1 X116.684 Y146 E414.84571
G1 X82.311 Y146 E415.70315
G1 X82.286 Y145.849 E415.70697
G1 X82.268 Y145.6 E415.7132
G1 X116.743 Y145.6 E416.57318
G1 X116.749 Y145.568 E416.57399
G1 X116.767 Y145.2 E416.58318
G1 X82.24 Y145.2 E417.44446
G1 X82.213 Y144.8 E417.45446
G1 X116.789 Y144.8 E418.31697
G1 X116.798 Y144.654 E418.32061
G1 X116.797 Y144.4 E418.32695
G1 X82.201 Y144.4 E419.18995
G1 X82.201 Y144 E419.19993
G1 X116.797 Y144 E420.06293
