;FLAVOR:Marlin
;TIME:17245
;Filament used:10.0175m
;Layer height: 0.15
;MINX:64.172
;MINY:28.7
;MINZ:0.24
;MAXX:154.125
;MAXY:191.35
;MAXZ:9.88
                               
;Creality Print GCode Generated by CXEngine:NO_MAGE_VERSION_GIT_HEAD_BRANCH
;CXEngine Release Time:2022-08-30 19:45:28
;Gcode Generated Time:2024-09-28 16:36:09
;----------Machine Config--------------
;Machine Name:Creality Ender-3
;Machine Height:250
;Machine Width:220
;Machine Depth:220
;Material name:cxsw
;Number of Extruders:1
;ExtruderParams[0] Nozzle Diameter1000
;----------Profile Config---------------
;Engine Version:9c786ab
;Engine Release Time:2022-08-30 19:36:37
;Layer Height:0.15
;Wall Thickness:0.8
;Top/Bottom Thickness:1
;Out Wall Line Width:0.4
;Inner Wall Line Width:0.4
;Inital Layer Height:150
;Wall Line Count:2
;Infill Line Distance:4
;Infill Pattern:grid
;Infill Sparse Density:20
;Infill Wipe Distance:0
;Print Temperature:200
;Bed Temperature:50
;Support Enable:false
;Support Density:30
;Support Angle:60
;Adhesion Type:simpleraft
;machine is belt:false
;machine belt offset:10
;machine belt offset Y:0
;Raft Base Line Spacing:1.6
;Wait Heatup Sync:true
;----------Shell Config----------------
;Outer Wall Wipe Distance:200
;Outer Inset First:false
;Infill Before Walls:false
;Infill Overlap:0.16
;Fill Gaps Between Walls:everywhere
;Minimum Infill Area:1
;Top Surface Skin Layer:0
;Top Layers:4
;Z Seam Alignment:sharpest_corner
;Seam Corner Preference:z_seam_corner_inner
;Z Seam X:110
;Z Seam Y:110
;Horizontal Expansion:0
;Top/Bottom Pattern:zigzag
;Ironing Pattern:zigzag
;Vase Model:false
;----------Support Config----------------
;Support Type:everywhere
;Support Pattern:zigzag
;Support Infill Layer Thickness:0.15
;Minimum Support Area:5
;Enable Support Roof:false
;Support Roof Thickness:0.8
;Support Roof Pattern:lines
;Connect Support Lines:0
;Connect Support ZigZags:1
;Minimum Support X/Y Distance:0.2
;Support Line Distance:1.33
; ---------PrintSpeed & Travel----------
;Enable Print Cool:true
;Avoid Printed Parts Traveling:true
;Enable Retraction:true
;Retraction Distance:8
;Retraction Speed:100
;Retraction Prime Speed:100
;Maximum Retraction Count:100
;Minimum Extrusion Distance Window:1
;Z Hop When Retracted:false
;Z Hop Height:0.2
;Retract Before Outer Wall:true
;Print Speed:50
;Infill Speed:50

;Prime Tower Speed:50
;Travel Speed:120
;Initial Layer Speed:25
;Skirt/Brim Speed:25
;Combing Mode:infill
; --------SpecialModel&Mesh Fixes--------
;Union Overlapping Volum:true
;Remove All Holes:false
;Maximum Travel Resolution:0.6
;Maximum Deviation:0.05
;Maximum Model Angle:0.872665
;IS Mold Print:false
;Make Overhang Printable:false
;Enable Coasting:false
;Coasting Volumes:0.06
;Coasting Speed:0.9
;Raft AirGap:0.25
;Layer0 ZOverLap:0.13
;---------------------End of Head--------------------------
M140 S50
M105
M104 S200
M105
M109 S200
M105
M190 S50
M82 ;absolute extrusion mode
M220 S100 ;Reset Feedrate
M221 S100 ;Reset Flowrate

G28 ;Home

G92 E0 ;Reset Extruder
G1 Z2.0 F3000 ;Move Z Axis up
G1 X10.1 Y20 Z0.28 F5000.0 ;Move to start position
G1 X10.1 Y145.0 Z0.28 F1500.0 E15 ;Draw the first line
G1 X10.4 Y145.0 Z0.28 F5000.0 ;Move to side a little
G1 X10.4 Y20 Z0.28 F1500.0 E30 ;Draw the second line
G92 E0  ;Reset Extruder
G1 E-1.0000 F1800 ;Retract a bit
G1 Z2.0 F3000 ;Move Z Axis up
G1 E0.0000 F1800 

G92 E0
G92 E0
G1 F6000 E-8

;LAYER_COUNT:60

;LAYER:-4
M107
G0 F7200 X65.6 Y42.603 Z0.24
;TYPE:SUPPORT-INTERFACE
G1 F6000 E0
G1 F1200 X65.6 Y177.435 E11.83916
G1 X65.458 Y176.982 E11.88085
G1 X65.072 Y175.238 E12.03769
G1 X64.932 Y174.385 E12.11359
G1 X64.796 Y172.594 E12.2713
G1 X64.774 Y171.975 E12.32569
G1 X64.773 Y57.509 E22.37658
G1 X64.777 Y48.013 E23.21039
G1 X64.916 Y45.914 E23.3951
G1 X65.028 Y45.043 E23.47221
G1 X65.413 Y43.276 E23.63101
G1 X65.641 Y42.456 E23.70574
G1 X66.283 Y40.738 E23.86678
G1 X66.628 Y39.953 E23.94207
G1 X67.2 Y38.904 E24.04698
G1 X67.2 Y181.143 E36.53653
G1 X67.586 Y181.848 E36.6071
G1 X68.084 Y182.597 E36.68608
G1 X68.8 Y183.548 E36.79061
G1 X68.8 Y36.497 E49.70268
G1 X69.004 Y36.224 E49.7326
G1 X69.575 Y35.542 E49.8107
G1 X70.4 Y34.714 E49.91334
G1 X70.4 Y185.333 E63.1387
G1 X71.016 Y185.947 E63.21507
G1 X71.686 Y186.509 E63.29186
G1 X72 Y186.743 E63.32625
G1 X72 Y33.307 E76.79896
G1 X72.932 Y32.606 E76.90136
G1 X73.6 Y32.161 E76.97184
G1 X73.6 Y187.878 E90.64485
G1 X73.836 Y188.025 E90.66926
G1 X75.2 Y188.769 E90.80569
G1 X75.2 Y31.275 E104.63473
G1 X75.237 Y31.255 E104.63842
G1 X76.344 Y30.749 E104.74529
G1 X76.8 Y30.58 E104.78799
G1 X76.8 Y189.461 E118.73882
G1 X77.944 Y189.888 E118.84604
G1 X78.4 Y190.013 E118.88756
G1 X78.4 Y30.028 E132.93532
G1 X78.525 Y29.989 E132.94682
G1 X80 Y29.661 E133.0795
G1 X80 Y190.384 E147.19206
G1 X80.491 Y190.492 E147.23621
G1 X81.472 Y190.616 E147.32303
G1 X81.6 Y190.624 E147.33429
G1 X81.6 Y29.423 E161.48883
G1 X82.878 Y29.325 E161.60138
G1 X83.2 Y29.313 E161.62967
G1 X83.2 Y190.727 E175.80291
G1 X83.454 Y190.744 E175.82526
G1 X84.8 Y190.744 E175.94345
G1 X84.8 Y29.301 E190.11924
G1 X86.4 Y29.301 E190.25973
G1 X86.4 Y190.744 E204.43551
G1 X88 Y190.744 E204.57601
G1 X88 Y29.301 E218.75179
G1 X89.6 Y29.301 E218.89228
G1 X89.6 Y190.744 E233.06807
G1 X91.2 Y190.744 E233.20856
G1 X91.2 Y29.302 E247.38426
G1 X92.8 Y29.302 E247.52475
G1 X92.8 Y190.745 E261.70054
G1 X94.4 Y190.745 E261.84103
G1 X94.4 Y29.302 E276.01681
G1 X96 Y29.302 E276.1573
G1 X96 Y190.745 E290.33309
G1 X97.6 Y190.745 E290.47358
G1 X97.6 Y29.302 E304.64937
G1 X99.2 Y29.303 E304.78986
G1 X99.2 Y190.745 E318.96556
G1 X100.8 Y190.746 E319.10605
G1 X100.8 Y29.303 E333.28183
G1 X102.4 Y29.303 E333.42232
G1 X102.4 Y190.746 E347.59811
G1 X104 Y190.746 E347.7386
G1 X104 Y29.303 E361.91439
G1 X105.6 Y29.304 E362.05488
G1 X105.6 Y190.746 E376.23058
G1 X107.2 Y190.746 E376.37107
G1 X107.2 Y29.304 E390.54677
G1 X108.8 Y29.304 E390.68726
G1 X108.8 Y190.746 E404.86296
G1 X110.4 Y190.747 E405.00345
G1 X110.4 Y29.304 E419.17923
G1 X112 Y29.304 E419.31972
G1 X112 Y190.747 E433.49551
G1 X113.6 Y190.747 E433.636
G1 X113.6 Y29.305 E447.8117
G1 X115.2 Y29.305 E447.95219
G1 X115.2 Y190.747 E462.12789
G1 X116.8 Y190.747 E462.26838
G1 X116.8 Y29.305 E476.44408
G1 X118.4 Y29.305 E476.58457
G1 X118.4 Y190.748 E490.76035
G1 X120 Y190.748 E490.90085
G1 X120 Y29.305 E505.07663
G1 X121.6 Y29.306 E505.21712
G1 X121.6 Y190.748 E519.39282
G1 X123.2 Y190.748 E519.53331
G1 X123.2 Y29.306 E533.70901
G1 X124.8 Y29.306 E533.8495
G1 X124.8 Y190.748 E548.0252
G1 X126.4 Y190.749 E548.16569
G1 X126.4 Y29.306 E562.34148
G1 X128 Y29.307 E562.48197
G1 X128 Y190.749 E576.65767
G1 X129.6 Y190.749 E576.79816
G1 X129.6 Y29.307 E590.97386
G1 X131.2 Y29.307 E591.11435
G1 X131.2 Y190.749 E605.29005
G1 X132.8 Y190.749 E605.43054
G1 X132.8 Y29.307 E619.60624
G1 X134.4 Y29.307 E619.74673
G1 X134.4 Y190.749 E633.92243
G1 X134.701 Y190.75 E633.94886
G1 X135.387 Y190.726 E634.00913
G1 X136 Y190.679 E634.06311
G1 X136 Y29.381 E648.22617
G1 X136.821 Y29.433 E648.2984
G1 X137.6 Y29.531 E648.36734
G1 X137.6 Y190.518 E662.50309
G1 X138.007 Y190.452 E662.53929
G1 X139.2 Y190.189 E662.64656
G1 X139.2 Y29.865 E676.72409
G1 X139.573 Y29.947 E676.75763
G1 X140.38 Y30.17 E676.83114
G1 X140.8 Y30.328 E676.87054
G1 X140.8 Y189.727 E690.86685
G1 X141.946 Y189.302 E690.97418
G1 X142.4 Y189.095 E691.01799
G1 X142.4 Y30.948 E704.90437
G1 X142.87 Y31.154 E704.94943
G1 X144 Y31.771 E705.06247
G1 X144 Y188.278 E718.80485
G1 X144.624 Y187.936 E718.86733
G1 X145.381 Y187.432 E718.94718
G1 X145.6 Y187.268 E718.97121
G1 X145.6 Y32.784 E732.53595
G1 X146.601 Y33.532 E732.64567
G1 X147.2 Y34.034 E732.71429
G1 X147.2 Y186.006 E746.05846
G1 X147.47 Y185.763 E746.09036
G1 X148.736 Y184.493 E746.24781
G1 X148.8 Y184.417 E746.25654
G1 X148.8 Y35.656 E759.31876
G1 X149.354 Y36.297 E759.39315
G1 X150.218 Y37.459 E759.5203
G1 X150.4 Y37.731 E759.54904
G1 X150.4 Y182.336 E772.24633
G1 X150.833 Y181.634 E772.31875
G1 X151.678 Y180.08 E772.47407
G1 X152.021 Y179.296 E772.54921
G1 X152.662 Y177.578 E772.71022
G1 X152.888 Y176.76 E772.78474
G1 X153.267 Y175.021 E772.94102
G1 X153.393 Y174.028 E773.02891
G1 X153.518 Y172.078 E773.20049
G1 X153.525 Y167.487 E773.60361
G1 X153.524 Y48.089 E784.08756
G1 X153.499 Y47.389 E784.14906
G1 X153.363 Y45.657 E784.30161
G1 X153.221 Y44.789 E784.37884
G1 X152.836 Y43.055 E784.53481
G1 X152.58 Y42.241 E784.60973
G1 X152 Y40.697 E784.75456
G1 X152 Y179.344 E796.9287
;;retract;;
G1 F6000 E788.9287
G0 F600 X152 Y179.344 Z0.46
G0 F7200 X66.926 Y181.478
;TIME_ELAPSED:461.512412

;LAYER:-3
;TYPE:SUPPORT
G1 F6000 E796.9287
G1 F1800 X74.039 Y188.591 E797.66476
G1 X73.644 Y188.376 E797.69767
G1 X72.912 Y187.923 E797.76066
G1 X71.447 Y186.83 E797.8944
G1 X70.747 Y186.243 E797.96125
G1 X69.457 Y184.958 E798.09448
G1 X68.844 Y184.273 E798.16175
G1 X67.755 Y182.825 E798.29432
G1 X67.244 Y182.057 E798.36182
G1 X66.365 Y180.452 E798.49572
G1 X65.98 Y179.646 E798.56108
G1 X65.661 Y178.798 E798.62737
G1 X76.721 Y189.858 E799.77188
G1 X77.813 Y190.266 E799.85718
G1 X78.658 Y190.5 E799.92133
G1 X78.809 Y190.532 E799.93263
G1 X64.988 Y176.71 E801.36289
G1 X64.679 Y175.314 E801.46752
G1 X64.614 Y174.923 E801.49652
G1 X80.599 Y190.908 E803.15067
G1 X81.429 Y191.014 E803.21189
G1 X82.166 Y191.06 E803.26593
G1 X64.451 Y173.345 E805.0991
G1 X64.397 Y172.624 E805.152
G1 X64.374 Y171.975 E805.19952
G1 X64.372 Y171.853 E805.20845
G1 X83.663 Y191.143 E807.20465
G1 X85.077 Y191.143 E807.30812
G1 X64.372 Y170.438 E809.4507
G1 X64.372 Y169.024 E809.55416
G1 X86.491 Y191.143 E811.84307
G1 X87.906 Y191.143 E811.9466
G1 X64.372 Y167.61 E814.38188
G1 X64.372 Y166.196 E814.48535
G1 X89.32 Y191.143 E817.06694
G1 X90.735 Y191.144 E817.17048
G1 X64.372 Y164.782 E819.89851
G1 X64.372 Y163.367 E820.00205
G1 X92.149 Y191.144 E822.87645
G1 X93.563 Y191.144 E822.97991
G1 X64.372 Y161.953 E826.00063
G1 X64.372 Y160.539 E826.1041
G1 X94.977 Y191.144 E829.27114
G1 X96.392 Y191.145 E829.37468
G1 X64.372 Y159.125 E832.68815
G1 X64.372 Y157.71 E832.79169
G1 X97.807 Y191.145 E836.25159
G1 X99.221 Y191.145 E836.35505
G1 X64.372 Y156.296 E839.96127
G1 X64.372 Y154.882 E840.06473
G1 X100.635 Y191.145 E843.81728
G1 X102.049 Y191.145 E843.92074
G1 X64.372 Y153.468 E847.8196
G1 X64.372 Y152.054 E847.92307
G1 X103.464 Y191.145 E851.96831
G1 X104.878 Y191.145 E852.07177
G1 X64.372 Y150.639 E856.26338
G1 X64.372 Y149.225 E856.36685
G1 X106.292 Y191.145 E860.70478
G1 X107.707 Y191.145 E860.80832
G1 X64.372 Y147.811 E865.29263
G1 X64.372 Y146.397 E865.3961
G1 X109.122 Y191.146 E870.02683
G1 X110.536 Y191.146 E870.1303
G1 X64.372 Y144.983 E874.90735
G1 X64.372 Y143.568 E875.01089
G1 X111.95 Y191.146 E879.93432
G1 X113.364 Y191.146 E880.03779
G1 X64.372 Y142.154 E885.10754
G1 X64.372 Y140.74 E885.21101
G1 X114.778 Y191.146 E890.42708
G1 X116.193 Y191.147 E890.53062
G1 X64.372 Y139.326 E895.89313
G1 X64.372 Y137.911 E895.99666
G1 X117.608 Y191.147 E901.50559
G1 X119.022 Y191.147 E901.60906
G1 X64.372 Y136.497 E907.26431
G1 X64.372 Y135.083 E907.36777
G1 X120.436 Y191.147 E913.16935
G1 X121.85 Y191.147 E913.27281
G1 X64.372 Y133.669 E919.22071
G1 X64.372 Y132.255 E919.32417
G1 X123.265 Y191.147 E925.41844
G1 X124.679 Y191.147 E925.52191
G1 X64.372 Y130.84 E931.76255
G1 X64.372 Y129.426 E931.86602
G1 X126.094 Y191.147 E938.25304
G1 X127.508 Y191.147 E938.3565
G1 X64.372 Y128.012 E944.88984
G1 X64.372 Y126.598 E944.99331
G1 X128.923 Y191.148 E951.67308
G1 X130.337 Y191.148 E951.77654
G1 X64.372 Y125.184 E958.60263
G1 X64.372 Y123.769 E958.70617
G1 X131.751 Y191.148 E965.67863
G1 X133.165 Y191.148 E965.7821
G1 X64.372 Y122.355 E972.90088
G1 X64.372 Y120.941 E973.00435
G1 X134.58 Y191.148 E980.26951
G1 X134.715 Y191.15 E980.27939
G1 X135.408 Y191.126 E980.33013
G1 X135.93 Y191.085 E980.36844
G1 X64.372 Y119.527 E987.77335
G1 X64.372 Y118.112 E987.87689
G1 X137.239 Y190.979 E995.41726
G1 X138.088 Y190.844 E995.48016
G1 X138.439 Y190.765 E995.50649
G1 X64.372 Y116.698 E1003.17104
G1 X64.372 Y115.284 E1003.2745
G1 X139.597 Y190.509 E1011.05888
G1 X139.86 Y190.453 E1011.07855
G1 X140.692 Y190.189 E1011.14243
G1 X64.372 Y113.869 E1019.04011
G1 X64.372 Y112.455 E1019.14358
G1 X141.725 Y189.808 E1027.14817
G1 X142.1 Y189.671 E1027.17738
G1 X142.718 Y189.387 E1027.22715
G1 X64.372 Y111.041 E1035.33449
G1 X64.372 Y109.627 E1035.43795
G1 X143.662 Y188.917 E1043.64298
G1 X144.576 Y188.417 E1043.71921
G1 X64.372 Y108.212 E1052.01888
G1 X64.372 Y106.798 E1052.12234
G1 X145.444 Y187.87 E1060.51178
G1 X145.609 Y187.761 E1060.52625
G1 X146.259 Y187.271 E1060.58581
G1 X64.372 Y105.384 E1069.05958
G1 X64.372 Y103.97 E1069.16304
G1 X147.065 Y186.663 E1077.72022
G1 X147.737 Y186.061 E1077.78624
G1 X147.806 Y185.99 E1077.79348
G1 X64.372 Y102.555 E1086.42739
G1 X64.372 Y101.141 E1086.53085
G1 X148.512 Y185.282 E1095.23782
G1 X149.033 Y184.761 E1095.29173
G1 X149.203 Y184.558 E1095.3111
G1 X64.372 Y99.727 E1104.08952
G1 X64.372 Y98.313 E1104.19299
G1 X149.83 Y183.771 E1113.03629
G1 X150.435 Y182.962 E1113.11021
G1 X64.372 Y96.899 E1122.01612
G1 X64.372 Y95.484 E1122.11965
G1 X151.004 Y182.117 E1131.08449
G1 X151.179 Y181.835 E1131.10878
G1 X151.516 Y181.214 E1131.16048
G1 X64.372 Y94.07 E1140.17825
G1 X64.372 Y92.656 E1140.28172
G1 X152.014 Y180.298 E1149.35102
G1 X152.036 Y180.258 E1149.35436
G1 X152.396 Y179.436 E1149.42002
G1 X152.442 Y179.312 E1149.4297
G1 X64.372 Y91.242 E1158.54329
G1 X64.372 Y89.828 E1158.64676
G1 X152.826 Y178.282 E1167.80009
G1 X153.04 Y177.709 E1167.84485
G1 X153.176 Y177.217 E1167.8822
G1 X64.372 Y88.413 E1177.07175
G1 X64.372 Y86.999 E1177.17521
G1 X153.447 Y176.075 E1186.39286
G1 X153.662 Y175.089 E1186.4667
G1 X153.686 Y174.899 E1186.48071
G1 X64.372 Y85.585 E1195.72304
G1 X64.372 Y84.171 E1195.8265
G1 X153.819 Y173.618 E1205.08259
G1 X153.905 Y172.29 E1205.17997
G1 X64.372 Y82.756 E1214.44501
G1 X64.372 Y81.342 E1214.54847
G1 X153.92 Y170.89 E1223.81501
G1 X153.922 Y169.478 E1223.91833
G1 X64.372 Y79.928 E1233.18508
G1 X64.372 Y78.514 E1233.28854
G1 X153.924 Y168.066 E1242.5555
G1 X153.925 Y167.487 E1242.59786
G1 X153.925 Y166.653 E1242.65889
G1 X64.372 Y77.1 E1251.92595
G1 X64.372 Y75.685 E1252.02949
G1 X153.925 Y165.238 E1261.29654
G1 X153.925 Y163.824 E1261.40001
G1 X64.372 Y74.271 E1270.66706
G1 X64.372 Y72.857 E1270.77053
G1 X153.925 Y162.41 E1280.03759
G1 X153.925 Y160.996 E1280.14105
G1 X64.372 Y71.443 E1289.40811
G1 X64.372 Y70.029 E1289.51158
G1 X153.925 Y159.581 E1298.77858
G1 X153.925 Y158.167 E1298.88205
G1 X64.372 Y68.614 E1308.1491
G1 X64.372 Y67.2 E1308.25257
G1 X153.925 Y156.753 E1317.51963
G1 X153.925 Y155.339 E1317.62309
G1 X64.372 Y65.786 E1326.89015
G1 X64.372 Y64.372 E1326.99361
G1 X153.925 Y153.925 E1336.26067
G1 X153.925 Y152.51 E1336.36421
G1 X64.372 Y62.957 E1345.63127
G1 X64.372 Y61.543 E1345.73473
G1 X153.925 Y151.096 E1355.00179
G1 X153.925 Y149.682 E1355.10525
G1 X64.372 Y60.129 E1364.37231
G1 X64.372 Y58.715 E1364.47578
G1 X153.925 Y148.268 E1373.74283
G1 X153.925 Y146.854 E1373.8463
G1 X64.372 Y57.301 E1383.11336
G1 X64.372 Y55.886 E1383.2169
G1 X153.925 Y145.439 E1392.48395
G1 X153.925 Y144.025 E1392.58742
G1 X64.372 Y54.473 E1401.85442
G1 X64.373 Y53.059 E1401.95789
G1 X153.925 Y142.611 E1411.22484
G1 X153.925 Y141.197 E1411.32831
G1 X64.374 Y51.646 E1420.59516
G1 X64.374 Y50.232 E1420.69862
G1 X153.925 Y139.782 E1429.96542
G1 X153.925 Y138.368 E1430.06889
G1 X64.375 Y48.818 E1439.33563
G1 X64.377 Y48.002 E1439.39534
G1 X64.412 Y47.441 E1439.43647
G1 X153.925 Y136.954 E1448.69939
G1 X153.925 Y135.54 E1448.80286
