;FLAVOR:Marlin
;TIME:7453
;Filament used:5.40971m
;Layer height: 0.15
;MINX:67.179
;MINY:40.196
;MINZ:0.24
;MAXX:152.812
;MAXY:179.803
;MAXZ:8.68
                             
;Creality Print GCode Generated by CXEngine:NO_MAGE_VERSION_GIT_HEAD_BRANCH
;CXEngine Release Time:2022-08-30 19:45:28
;Gcode Generated Time:2024-09-20 18:22:11
;----------Machine Config--------------
;Machine Name:Creality Ender-3
;Machine Height:250
;Machine Width:220
;Machine Depth:220
;Material name:cxsw
;Number of Extruders:1
;ExtruderParams[0] Nozzle Diameter1000
;----------Profile Config---------------
;Engine Version:9c786ab
;Engine Release Time:2022-08-30 19:36:37
;Layer Height:0.15
;Wall Thickness:0.8
;Top/Bottom Thickness:1
;Out Wall Line Width:0.4
;Inner Wall Line Width:0.4
;Inital Layer Height:150
;Wall Line Count:2
;Infill Line Distance:4
;Infill Pattern:grid
;Infill Sparse Density:20
;Infill Wipe Distance:0
;Print Temperature:200
;Bed Temperature:50
;Support Enable:false
;Support Density:30
;Support Angle:60
;Adhesion Type:simpleraft
;machine is belt:false
;machine belt offset:10
;machine belt offset Y:0
;Raft Base Line Spacing:1.6
;Wait Heatup Sync:true
;----------Shell Config----------------
;Outer Wall Wipe Distance:200
;Outer Inset First:false
;Infill Before Walls:false
;Infill Overlap:0.16
;Fill Gaps Between Walls:everywhere
;Minimum Infill Area:1
;Top Surface Skin Layer:0
;Top Layers:4
;Z Seam Alignment:sharpest_corner
;Seam Corner Preference:z_seam_corner_inner
;Z Seam X:110
;Z Seam Y:110
;Horizontal Expansion:0
;Top/Bottom Pattern:zigzag
;Ironing Pattern:zigzag
;Vase Model:false
;----------Support Config----------------
;Support Type:everywhere
;Support Pattern:zigzag
;Support Infill Layer Thickness:0.15
;Minimum Support Area:5
;Enable Support Roof:false
;Support Roof Thickness:0.8
;Support Roof Pattern:lines
;Connect Support Lines:0
;Connect Support ZigZags:1
;Minimum Support X/Y Distance:0.2
;Support Line Distance:1.33
; ---------PrintSpeed & Travel----------
;Enable Print Cool:true
;Avoid Printed Parts Traveling:true
;Enable Retraction:true
;Retraction Distance:8
;Retraction Speed:100
;Retraction Prime Speed:100
;Maximum Retraction Count:100
;Minimum Extrusion Distance Window:1
;Z Hop When Retracted:false
;Z Hop Height:0.2
;Retract Before Outer Wall:true
;Print Speed:50
;Infill Speed:50

;Prime Tower Speed:50
;Travel Speed:120
;Initial Layer Speed:25
;Skirt/Brim Speed:25
;Combing Mode:infill
; --------SpecialModel&Mesh Fixes--------
;Union Overlapping Volum:true
;Remove All Holes:false
;Maximum Travel Resolution:0.6
;Maximum Deviation:0.05
;Maximum Model Angle:0.872665
;IS Mold Print:false
;Make Overhang Printable:false
;Enable Coasting:false
;Coasting Volumes:0.06
;Coasting Speed:0.9
;Raft AirGap:0.25
;Layer0 ZOverLap:0.13
;---------------------End of Head--------------------------
M140 S50
M105
M104 S200
M105
M109 S200
M105
M190 S50
M82 ;absolute extrusion mode
M220 S100 ;Reset Feedrate
M221 S100 ;Reset Flowrate

G28 ;Home

G92 E0 ;Reset Extruder
G1 Z2.0 F3000 ;Move Z Axis up
G1 X10.1 Y20 Z0.28 F5000.0 ;Move to start position
G1 X10.1 Y145.0 Z0.28 F1500.0 E15 ;Draw the first line
G1 X10.4 Y145.0 Z0.28 F5000.0 ;Move to side a little
G1 X10.4 Y20 Z0.28 F1500.0 E30 ;Draw the second line
G92 E0  ;Reset Extruder
G1 E-1.0000 F1800 ;Retract a bit
G1 Z2.0 F3000 ;Move Z Axis up
G1 E0.0000 F1800 

G92 E0
G92 E0
G1 F6000 E-8

;LAYER_COUNT:53

;LAYER:-4
M107
G0 F7200 X68.8 Y50.229 Z0.24
;TYPE:SUPPORT-INTERFACE
G1 F6000 E0
G1 F1200 X68.8 Y92.382 E3.70132
G1 X68.497 Y91.743 E3.76342
G1 X68.209 Y90.955 E3.83708
G1 X67.999 Y90.166 E3.90877
G1 X67.86 Y89.372 E3.97955
G1 X67.779 Y88.18 E4.08446
G1 X67.782 Y54.427 E7.0482
G1 X67.827 Y53.578 E7.12285
G1 X67.951 Y52.735 E7.19767
G1 X68.138 Y51.95 E7.26853
G1 X68.393 Y51.176 E7.34009
G1 X69.765 Y47.987 E7.64492
G1 X70.159 Y47.196 E7.72251
G1 X70.4 Y46.806 E7.76277
G1 X70.4 Y94.607 E11.96002
G1 X70.877 Y95.07 E12.01839
G1 X71.495 Y95.573 E12.08835
G1 X72 Y95.913 E12.14181
G1 X72 Y44.886 E16.62232
G1 X72.237 Y44.667 E16.65066
G1 X72.891 Y44.16 E16.72332
G1 X73.543 Y43.734 E16.79171
G1 X73.6 Y43.699 E16.79758
G1 X73.6 Y96.74 E21.45494
G1 X73.653 Y96.764 E21.46005
G1 X74.433 Y97.027 E21.53232
G1 X75.2 Y97.211 E21.60158
G1 X75.2 Y42.744 E26.38415
G1 X76.141 Y42.183 E26.48035
G1 X76.8 Y41.835 E26.54579
G1 X76.8 Y97.381 E31.4231
G1 X76.931 Y97.389 E31.43463
G1 X78.4 Y97.389 E31.56361
G1 X78.4 Y41.229 E36.49484
G1 X78.485 Y41.203 E36.50265
G1 X79.891 Y40.922 E36.62854
G1 X80 Y40.909 E36.63818
G1 X80 Y97.39 E41.5976
G1 X81.6 Y97.39 E41.73809
G1 X81.6 Y40.797 E46.70733
G1 X83.2 Y40.797 E46.84783
G1 X83.2 Y97.391 E51.81716
G1 X84.8 Y97.391 E51.95765
G1 X84.8 Y40.797 E56.92699
G1 X86.4 Y40.797 E57.06748
G1 X86.4 Y97.392 E62.0369
G1 X88 Y97.392 E62.17739
G1 X88 Y40.797 E67.14682
G1 X89.6 Y40.797 E67.28731
G1 X89.6 Y97.471 E72.26367
G1 X91.2 Y97.586 E72.40452
G1 X91.2 Y40.797 E77.39098
G1 X92.8 Y40.797 E77.53147
G1 X92.8 Y97.761 E82.53329
G1 X92.896 Y97.776 E82.54183
G1 X93.578 Y97.978 E82.60428
G1 X94.4 Y98.28 E82.68118
G1 X94.4 Y40.797 E87.72857
G1 X96 Y40.798 E87.86906
G1 X96 Y98.924 E92.97292
G1 X96.087 Y98.964 E92.98133
G1 X96.69 Y99.343 E93.04386
G1 X97.6 Y100 E93.14242
G1 X97.6 Y40.798 E98.34075
G1 X99.2 Y40.798 E98.48124
G1 X99.2 Y101.366 E103.79952
G1 X99.322 Y101.501 E103.8155
G1 X100.494 Y102.972 E103.98065
G1 X100.957 Y103.649 E104.05267
G1 X101.275 Y104.287 E104.11526
G1 X102.006 Y106.024 E104.28074
G1 X102.268 Y106.799 E104.35257
G1 X102.4 Y107.492 E104.41451
G1 X102.4 Y40.798 E110.2707
G1 X100.8 Y40.798 E110.41119
G1 X100.8 Y103.419 E115.90974
;;retract;;
G1 F6000 E107.90974
G0 F7200 X101.551 Y107.631
G0 X101.818 Y110.171
G0 X101.499 Y112.602
G0 X101.338 Y113.319
G0 X100.375 Y115.57
G0 X100.031 Y116.209
G0 X98.49 Y118.124
G0 X97.994 Y118.639
G0 X95.994 Y120.069
G0 X95.362 Y120.44
G0 X93.277 Y121.194
G0 X68.8 Y127.621
G1 F6000 E115.90974
G1 F1200 X68.8 Y170.235 E119.65153
G1 X68.633 Y169.777 E119.69434
G1 X68.384 Y168.833 E119.78006
G1 X67.977 Y166.912 E119.95248
G1 X67.841 Y166.027 E120.0311
G1 X67.779 Y164.944 E120.12636
G1 X67.782 Y131.759 E123.04022
G1 X67.827 Y130.91 E123.11488
G1 X67.951 Y130.067 E123.18969
G1 X68.139 Y129.276 E123.26108
G1 X68.396 Y128.507 E123.33228
G1 X68.725 Y127.758 E123.40411
G1 X69.136 Y127.009 E123.47913
G1 X69.598 Y126.326 E123.55153
G1 X70.097 Y125.71 E123.62114
G1 X70.4 Y125.397 E123.65939
G1 X70.4 Y172.988 E127.8382
G1 X71.819 Y174.769 E128.03815
G1 X72 Y174.978 E128.06243
G1 X72 Y124.08 E132.53162
G1 X72.664 Y123.689 E132.59928
G1 X73.44 Y123.323 E132.67462
G1 X73.6 Y123.264 E132.68959
G1 X73.6 Y176.471 E137.36153
G1 X74.171 Y176.864 E137.42239
G1 X74.885 Y177.268 E137.49443
G1 X75.2 Y177.409 E137.52473
G1 X75.2 Y122.793 E142.32038
G1 X75.793 Y122.689 E142.37325
G1 X76.8 Y122.62 E142.46188
G1 X76.8 Y178.059 E147.32979
G1 X78.083 Y178.556 E147.45061
G1 X78.4 Y178.661 E147.47993
G1 X78.4 Y122.606 E152.40194
G1 X80 Y122.605 E152.54243
G1 X80 Y179.07 E157.50044
G1 X80.571 Y179.155 E157.55113
G1 X81.429 Y179.201 E157.62657
G1 X81.6 Y179.201 E157.64159
G1 X81.6 Y122.604 E162.61119
G1 X83.2 Y122.603 E162.75168
G1 X83.2 Y179.201 E167.72137
G1 X84.8 Y179.201 E167.86186
G1 X84.8 Y122.601 E172.83172
G1 X86.4 Y122.6 E172.97221
G1 X86.4 Y179.201 E177.94216
G1 X88 Y179.2 E178.08265
G1 X88 Y122.599 E183.0526
G1 X88.445 Y122.599 E183.09168
G1 X89.6 Y122.529 E183.19328
G1 X89.6 Y179.2 E188.16938
G1 X91.2 Y179.2 E188.30987
G1 X91.2 Y122.433 E193.29439
G1 X91.81 Y122.397 E193.34805
G1 X92.515 Y122.309 E193.41043
G1 X92.8 Y122.233 E193.43633
G1 X92.8 Y179.199 E198.43833
G1 X94.4 Y179.199 E198.57882
G1 X94.4 Y121.722 E203.62569
G1 X95.093 Y121.484 E203.69003
G1 X95.751 Y121.211 E203.75258
G1 X96 Y121.064 E203.77797
G1 X96 Y179.199 E208.88262
G1 X97.6 Y179.198 E209.02311
G1 X97.6 Y120.006 E214.22057
G1 X98.01 Y119.724 E214.26426
G1 X98.568 Y119.283 E214.32671
G1 X99.134 Y118.696 E214.39831
G1 X99.2 Y118.616 E214.40742
G1 X99.2 Y179.198 E219.72693
G1 X100.8 Y179.198 E219.86742
G1 X100.8 Y116.595 E225.36438
G1 X101.146 Y115.954 E225.42834
G1 X101.916 Y114.232 E225.59398
G1 X102.165 Y113.564 E225.65657
G1 X102.346 Y112.763 E225.72868
G1 X102.4 Y112.397 E225.76117
G1 X102.4 Y179.197 E231.62666
G1 X104 Y179.197 E231.76715
G1 X104 Y40.798 E243.91952
G1 X105.6 Y40.798 E244.06001
G1 X105.6 Y179.197 E256.21237
G1 X107.2 Y179.196 E256.35287
G1 X107.2 Y40.798 E268.50514
G1 X108.8 Y40.799 E268.64564
G1 X108.8 Y179.196 E280.79783
G1 X110.4 Y179.196 E280.93832
G1 X110.4 Y40.799 E293.09051
G1 X112 Y40.799 E293.231
G1 X112 Y179.196 E305.38319
G1 X113.6 Y179.195 E305.52368
G1 X113.6 Y40.799 E317.67579
G1 X115.2 Y40.799 E317.81628
G1 X115.2 Y179.195 E329.96838
G1 X116.8 Y179.195 E330.10887
G1 X116.8 Y40.799 E342.26098
G1 X118.4 Y40.799 E342.40147
G1 X118.4 Y179.194 E354.55349
G1 X120 Y179.194 E354.69398
G1 X120 Y40.799 E366.84599
G1 X121.6 Y40.799 E366.98648
G1 X121.6 Y179.194 E379.1385
G1 X122.377 Y179.193 E379.20673
G1 X123.158 Y179.124 E379.27557
G1 X123.2 Y179.117 E379.27931
G1 X123.2 Y40.892 E391.4164
G1 X123.72 Y40.968 E391.46254
G1 X124.515 Y41.158 E391.53432
G1 X124.8 Y41.254 E391.56072
G1 X124.8 Y178.754 E403.63415
G1 X125.523 Y178.488 E403.7018
G1 X126.272 Y178.136 E403.77447
G1 X126.4 Y178.061 E403.78749
G1 X126.4 Y41.946 E415.73931
G1 X126.778 Y42.153 E415.77715
G1 X127.461 Y42.615 E415.84955
G1 X128 Y43.052 E415.91048
G1 X128 Y176.942 E427.66693
G1 X128.279 Y176.702 E427.69925
G1 X128.862 Y176.101 E427.77277
G1 X129.367 Y175.478 E427.84319
G1 X129.6 Y175.133 E427.87974
G1 X129.6 Y44.863 E439.31833
G1 X129.696 Y44.997 E439.3328
G1 X130.098 Y45.681 E439.40247
G1 X130.464 Y46.457 E439.4778
G1 X130.746 Y47.225 E439.54964
G1 X130.961 Y48.033 E439.62306
G1 X131.096 Y48.802 E439.69161
G1 X131.178 Y49.965 E439.79399
G1 X131.178 Y105.309 E444.65356
G1 X131.2 Y105.662 E444.68462
G1 X131.2 Y165.802 E449.96532
G1 X131.245 Y165.219 E450.01666
G1 X131.407 Y164.499 E450.08146
G1 X131.647 Y163.833 E450.14362
G1 X132.8 Y161.175 E450.39803
G1 X132.8 Y110.188 E454.87503
G1 X134.4 Y113.818 E455.22336
G1 X134.4 Y157.487 E459.05779
G1 X134.555 Y157.129 E459.09204
G1 X135.032 Y156.257 E459.17932
G1 X135.483 Y155.664 E459.24474
G1 X135.999 Y155.142 E459.30919
G0 F7200 X136 Y155.142
G1 F1200 X136 Y115.991 E462.74691
G1 X136.245 Y116.202 E462.7753
G1 X136.856 Y116.608 E462.83971
G1 X137.523 Y116.94 E462.90513
G1 X137.6 Y116.964 E462.91222
G1 X137.6 Y154.141 E466.17661
G1 X137.882 Y154.017 E466.20366
G1 X139.2 Y153.66 E466.32356
G1 X139.2 Y117.419 E469.50576
G1 X139.411 Y117.471 E469.52484
G1 X140.214 Y117.752 E469.59954
G1 X140.8 Y118.021 E469.65616
G1 X140.8 Y153.07 E472.7337
G1 X141.135 Y152.91 E472.7663
G1 X141.912 Y152.451 E472.84554
G1 X142.4 Y152.127 E472.89697
G1 X142.4 Y118.965 E475.80882
G1 X144 Y120.022 E475.9772
G1 X144 Y151.063 E478.70281
G1 X145.117 Y150.32 E478.82061
G1 X145.6 Y149.956 E478.87371
G1 X145.6 Y121.115 E481.40615
G1 X145.852 Y121.302 E481.4337
G1 X146.482 Y121.863 E481.50777
G1 X147.038 Y122.463 E481.5796
G1 X147.2 Y122.675 E481.60303
G1 X147.2 Y148.45 E483.86625
G1 X147.209 Y148.439 E483.8675
G1 X147.747 Y147.722 E483.94621
G1 X148.8 Y146.14 E484.11307
G1 X148.8 Y124.952 E485.97352
G1 X149.868 Y126.532 E486.14098
G1 X150.334 Y127.309 E486.22053
G1 X150.4 Y127.447 E486.23397
G1 X150.4 Y143.626 E487.65459
G1 X150.435 Y143.565 E487.66077
G1 X150.784 Y142.813 E487.73356
G1 X151.056 Y142.047 E487.80494
G1 X151.29 Y141.125 E487.88846
G1 X152.025 Y137.407 E488.22124
G1 X152.18 Y136.259 E488.32296
G1 X152.212 Y135.432 E488.39563
G1 X152.168 Y134.632 E488.46598
G1 X152.038 Y133.724 E488.54653
G1 X152 Y133.536 E488.56337
G1 X152 Y137.534 E488.91442
G0 F600 X152 Y137.534 Z0.46
G0 F7200 X152.604 Y135.633
;TIME_ELAPSED:286.928231

;LAYER:-3
;TYPE:SUPPORT
G1 F1800 X68.014 Y51.043 E497.6679
G1 X68.017 Y51.039 E497.66826
G1 X68.439 Y50.054 E497.74667
G1 X152.497 Y134.112 E506.4451
G1 X152.566 Y134.587 E506.48022
G1 X152.612 Y135.436 E506.54244
G1 X152.58 Y136.287 E506.60475
G1 X152.491 Y136.935 E506.65261
G1 X67.683 Y52.127 E515.42865
G1 X67.557 Y52.662 E515.46887
G1 X67.459 Y53.317 E515.51733
G1 X152.286 Y138.143 E524.29528
G1 X152.052 Y139.324 E524.38338
G1 X67.38 Y54.652 E533.14534
G1 X67.38 Y56.066 E533.24881
G1 X151.819 Y140.505 E541.98666
G1 X151.678 Y141.224 E542.04028
G1 X151.565 Y141.666 E542.07366
G1 X67.38 Y57.48 E550.78528
G1 X67.38 Y58.894 E550.88874
G1 X151.231 Y142.746 E559.5658
G1 X151.155 Y142.963 E559.58263
G1 X150.799 Y143.727 E559.6443
G1 X67.38 Y60.309 E568.27655
G1 X67.38 Y61.723 E568.38002
G1 X150.28 Y144.623 E576.95861
G1 X150.217 Y144.733 E576.96789
G1 X149.72 Y145.478 E577.03342
G1 X67.38 Y63.137 E585.55412
G1 X67.38 Y64.551 E585.65758
G1 X149.155 Y146.327 E594.11982
G1 X148.59 Y147.176 E594.19444
G1 X67.379 Y65.965 E602.59825
G1 X67.379 Y67.379 E602.70172
G1 X148.021 Y148.021 E611.04665
G1 X147.518 Y148.694 E611.10813
G1 X147.405 Y148.819 E611.12046
G1 X67.379 Y68.793 E619.40165
G1 X67.379 Y70.207 E619.50512
G1 X97.832 Y100.66 E622.65643
G1 X96.466 Y99.675 E622.77966
G1 X95.897 Y99.317 E622.82885
G1 X95.19 Y98.997 E622.88564
G1 X94.499 Y98.741 E622.93956
G1 X67.379 Y71.622 E625.74592
G1 X67.379 Y73.036 E625.84939
G1 X92.454 Y98.111 E628.44418
G1 X92.039 Y98.048 E628.47489
G1 X90.893 Y97.964 E628.55897
G1 X67.379 Y74.45 E630.99223
G1 X67.379 Y75.864 E631.0957
G1 X89.369 Y97.855 E633.3713
G1 X88.497 Y97.793 E633.43527
G1 X87.891 Y97.791 E633.47961
G1 X67.378 Y77.278 E635.60232
G1 X67.378 Y78.692 E635.70579
G1 X86.477 Y97.791 E637.68218
G1 X85.062 Y97.79 E637.78572
G1 X67.378 Y80.106 E639.61568
G1 X67.378 Y81.52 E639.71914
G1 X83.647 Y97.79 E641.40273
G1 X82.233 Y97.79 E641.5062
G1 X67.378 Y82.935 E643.04341
G1 X67.378 Y84.349 E643.14688
G1 X80.818 Y97.789 E644.53766
G1 X79.404 Y97.789 E644.64113
G1 X67.378 Y85.763 E645.8856
G1 X67.378 Y87.177 E645.98906
G1 X77.989 Y97.788 E647.0871
G1 X76.929 Y97.789 E647.16466
G1 X76.554 Y97.768 E647.19215
G1 X67.407 Y88.62 E648.13874
G1 X67.462 Y89.421 E648.19749
G1 X67.607 Y90.247 E648.25885
G1 X67.83 Y91.083 E648.32217
G1 X68.128 Y91.899 E648.38573
G1 X68.371 Y92.413 E648.42733
G1 X72.769 Y96.811 E648.88244
G1 X73.51 Y97.138 E648.94171
G1 X74.321 Y97.412 E649.00435
G1 X74.929 Y97.556 E649.05007
G1 X67.604 Y90.231 E649.80807
;;retract;;
G1 F6000 E641.80807
G0 F7200 X130.547 Y45.694
G1 F6000 E649.80807
G1 F1800 X126.272 Y41.419 E650.25045
G1 X126.978 Y41.806 E650.30936
G1 X127.705 Y42.297 E650.37355
G1 X128.343 Y42.814 E650.43364
G1 X128.967 Y43.42 E650.49729
G1 X129.538 Y44.086 E650.56148
G1 X130.033 Y44.781 E650.62392
G1 X130.453 Y45.494 E650.68447
G1 X130.835 Y46.304 E650.75
G1 X131.128 Y47.104 E650.81234
G1 X131.339 Y47.9 E650.87259
G1 X124.082 Y40.643 E651.62356
G1 X123.793 Y40.574 E651.6453
G1 X122.931 Y40.447 E651.70905
G1 X122.446 Y40.421 E651.74459
G1 X131.548 Y49.523 E652.68648
G1 X131.578 Y49.951 E652.71787
G1 X131.577 Y50.967 E652.79222
G1 X121.009 Y40.399 E653.88581
G1 X119.595 Y40.399 E653.98927
G1 X131.577 Y52.381 E655.22918
G1 X131.577 Y53.795 E655.33265
G1 X118.18 Y40.399 E656.71894
G1 X116.766 Y40.399 E656.8224
G1 X131.577 Y55.21 E658.35506
G1 X131.577 Y56.624 E658.45853
G1 X115.352 Y40.399 E660.13751
G1 X113.938 Y40.399 E660.24098
G1 X131.577 Y58.038 E662.06628
G1 X131.577 Y59.452 E662.16975
G1 X112.523 Y40.398 E664.14148
G1 X111.109 Y40.398 E664.24495
G1 X131.577 Y60.867 E666.36305
G1 X131.577 Y62.281 E666.46652
G1 X109.694 Y40.398 E668.731
G1 X108.28 Y40.398 E668.83446
G1 X131.577 Y63.695 E671.24527
G1 X131.577 Y65.109 E671.34873
