;FLAVOR:Marlin
;TIME:18333
;Filament used:10.7559m
;Layer height: 0.15
;MINX:82.201
;MINY:67.964
;MINZ:0.24
;MAXX:128.737
;MAXY:152.036
;MAXZ:80.83
                           
;Creality Print GCode Generated by CXEngine:NO_MAGE_VERSION_GIT_HEAD_BRANCH
;CXEngine Release Time:2022-08-30 19:45:28
;Gcode Generated Time:2024-09-20 18:23:59
;----------Machine Config--------------
;Machine Name:Creality Ender-3
;Machine Height:250
;Machine Width:220
;Machine Depth:220
;Material name:cxsw
;Number of Extruders:1
;ExtruderParams[0] Nozzle Diameter1000
;----------Profile Config---------------
;Engine Version:9c786ab
;Engine Release Time:2022-08-30 19:36:37
;Layer Height:0.15
;Wall Thickness:0.8
;Top/Bottom Thickness:1
;Out Wall Line Width:0.4
;Inner Wall Line Width:0.4
;Inital Layer Height:150
;Wall Line Count:2
;Infill Line Distance:4
;Infill Pattern:grid
;Infill Sparse Density:20
;Infill Wipe Distance:0
;Print Temperature:200
;Bed Temperature:50
;Support Enable:false
;Support Density:30
;Support Angle:60
;Adhesion Type:simpleraft
;machine is belt:false
;machine belt offset:10
;machine belt offset Y:0
;Raft Base Line Spacing:1.6
;Wait Heatup Sync:true
;----------Shell Config----------------
;Outer Wall Wipe Distance:200
;Outer Inset First:false
;Infill Before Walls:false
;Infill Overlap:0.16
;Fill Gaps Between Walls:everywhere
;Minimum Infill Area:1
;Top Surface Skin Layer:0
;Top Layers:4
;Z Seam Alignment:sharpest_corner
;Seam Corner Preference:z_seam_corner_inner
;Z Seam X:110
;Z Seam Y:110
;Horizontal Expansion:0
;Top/Bottom Pattern:zigzag
;Ironing Pattern:zigzag
;Vase Model:false
;----------Support Config----------------
;Support Type:everywhere
;Support Pattern:zigzag
;Support Infill Layer Thickness:0.15
;Minimum Support Area:5
;Enable Support Roof:false
;Support Roof Thickness:0.8
;Support Roof Pattern:lines
;Connect Support Lines:0
;Connect Support ZigZags:1
;Minimum Support X/Y Distance:0.2
;Support Line Distance:1.33
; ---------PrintSpeed & Travel----------
;Enable Print Cool:true
;Avoid Printed Parts Traveling:true
;Enable Retraction:true
;Retraction Distance:8
;Retraction Speed:100
;Retraction Prime Speed:100
;Maximum Retraction Count:100
;Minimum Extrusion Distance Window:1
;Z Hop When Retracted:false
;Z Hop Height:0.2
;Retract Before Outer Wall:true
;Print Speed:50
;Infill Speed:50

;Prime Tower Speed:50
;Travel Speed:120
;Initial Layer Speed:25
;Skirt/Brim Speed:25
;Combing Mode:infill
; --------SpecialModel&Mesh Fixes--------
;Union Overlapping Volum:true
;Remove All Holes:false
;Maximum Travel Resolution:0.6
;Maximum Deviation:0.05
;Maximum Model Angle:0.872665
;IS Mold Print:false
;Make Overhang Printable:false
;Enable Coasting:false
;Coasting Volumes:0.06
;Coasting Speed:0.9
;Raft AirGap:0.25
;Layer0 ZOverLap:0.13
;---------------------End of Head--------------------------
M140 S50
M105
M104 S200
M105
M109 S200
M105
M190 S50
M82 ;absolute extrusion mode
M220 S100 ;Reset Feedrate
M221 S100 ;Reset Flowrate

G28 ;Home

G92 E0 ;Reset Extruder
G1 Z2.0 F3000 ;Move Z Axis up
G1 X10.1 Y20 Z0.28 F5000.0 ;Move to start position
G1 X10.1 Y145.0 Z0.28 F1500.0 E15 ;Draw the first line
G1 X10.4 Y145.0 Z0.28 F5000.0 ;Move to side a little
G1 X10.4 Y20 Z0.28 F1500.0 E30 ;Draw the second line
G92 E0  ;Reset Extruder
G1 E-1.0000 F1800 ;Retract a bit
G1 Z2.0 F3000 ;Move Z Axis up
G1 E0.0000 F1800 

G92 E0
G92 E0
G1 F6000 E-8

;LAYER_COUNT:533

;LAYER:-4
M107
G0 F7200 X84.8 Y72.059 Z0.24
;TYPE:SUPPORT-INTERFACE
G1 F6000 E0
G1 F1200 X84.8 Y105.713 E2.95505
G1 X84.763 Y105.67 E2.96003
G1 X84.284 Y104.998 E3.03249
G1 X83.882 Y104.315 E3.10208
G1 X83.516 Y103.539 E3.17742
G1 X83.234 Y102.771 E3.24925
G1 X83.2 Y102.643 E3.26088
G1 X83.2 Y75.115 E5.67803
G1 X83.418 Y74.463 E5.73839
G1 X83.747 Y73.714 E5.81023
G1 X84.158 Y72.965 E5.88524
G1 X84.62 Y72.282 E5.95765
G1 X85.119 Y71.666 E6.02726
G1 X85.701 Y71.066 E6.10065
G1 X86.337 Y70.521 E6.1742
G1 X86.4 Y70.476 E6.181
G1 X86.4 Y108.397 E9.51072
G1 X86.546 Y109.004 E9.56554
G1 X86.624 Y109.734 E9.63
G1 X86.61 Y110.468 E9.69446
G1 X86.505 Y111.192 E9.7587
G1 X86.4 Y111.572 E9.79332
G1 X86.4 Y149.52 E13.12541
G1 X85.894 Y149.11 E13.18259
G1 X85.312 Y148.546 E13.25375
G1 X84.8 Y147.951 E13.32268
G1 X84.8 Y114.29 E16.27834
G1 X84.622 Y114.514 E16.30346
G1 X84.158 Y115.201 E16.37626
G1 X83.747 Y115.95 E16.45128
G1 X83.418 Y116.699 E16.52311
G1 X83.161 Y117.468 E16.5943
G1 X82.973 Y118.259 E16.66569
G1 X82.849 Y119.102 E16.74051
G1 X82.804 Y119.951 E16.81516
G1 X82.801 Y142.225 E18.77097
G1 X82.882 Y143.415 E18.8757
G1 X83.019 Y144.202 E18.94585
G1 X83.2 Y144.881 E19.00755
G1 X83.2 Y117.351 E21.42487
;;retract;;
G1 F6000 E13.42487
G0 F7200 X115.2 Y146.387
G1 F6000 E21.42487
G1 F1200 X115.2 Y73.619 E27.81439
G1 X115.486 Y74.225 E27.87323
G1 X115.768 Y74.993 E27.94507
G1 X115.983 Y75.801 E28.01848
G1 X116.118 Y76.57 E28.08704
G1 X116.2 Y77.733 E28.18941
G1 X116.201 Y83.553 E28.70045
G1 X116.292 Y85.192 E28.84459
G1 X116.29 Y134.901 E33.20937
G1 X116.201 Y136.442 E33.34491
G1 X116.198 Y142.285 E33.85796
G1 X116.153 Y143.134 E33.93261
G1 X116.029 Y143.975 E34.00726
G1 X115.84 Y144.769 E34.07892
G1 X115.584 Y145.537 E34.15001
G1 X115.255 Y146.286 E34.22184
G1 X114.844 Y147.035 E34.29686
G1 X114.382 Y147.718 E34.36926
G1 X113.883 Y148.334 E34.43887
G1 X113.6 Y148.626 E34.47458
G1 X113.6 Y71.368 E41.25835
G1 X113.098 Y70.881 E41.31976
G1 X112.483 Y70.383 E41.38925
G1 X112 Y70.057 E41.44042
G1 X112 Y149.952 E48.45574
G1 X111.309 Y150.36 E48.5262
G1 X110.761 Y150.625 E48.57965
G1 X110.4 Y150.763 E48.61358
G1 X110.4 Y69.224 E55.77326
G1 X110.315 Y69.186 E55.78143
G1 X109.537 Y68.926 E55.85346
G1 X108.8 Y68.75 E55.92
G1 X108.8 Y151.247 E63.16379
G1 X108.187 Y151.355 E63.21844
G1 X107.2 Y151.423 E63.30531
G1 X107.2 Y68.576 E70.57984
G1 X107.048 Y68.567 E70.59321
G1 X105.6 Y68.567 E70.72036
G1 X105.6 Y151.435 E77.99673
G1 X104 Y151.435 E78.13722
G1 X104 Y68.567 E85.41359
G1 X102.4 Y68.567 E85.55408
G1 X102.4 Y151.435 E92.83045
G1 X100.8 Y151.435 E92.97094
G1 X100.8 Y68.566 E100.2474
G1 X99.2 Y68.566 E100.38789
G1 X99.2 Y151.434 E107.66426
G1 X97.6 Y151.434 E107.80475
G1 X97.6 Y68.566 E115.08112
G1 X96 Y68.565 E115.22161
G1 X96 Y151.434 E122.49807
G1 X94.4 Y151.434 E122.63856
G1 X94.4 Y68.565 E129.91502
G1 X92.8 Y68.565 E130.05551
G1 X92.8 Y151.434 E137.33197
G1 X91.956 Y151.434 E137.40608
G1 X91.2 Y151.392 E137.47256
G1 X91.2 Y68.618 E144.74068
G1 X90.815 Y68.645 E144.77457
G1 X90.038 Y68.782 E144.84384
G1 X89.226 Y68.998 E144.91762
G1 X88.462 Y69.279 E144.9891
G1 X88 Y69.496 E145.03392
G1 X88 Y150.512 E152.14767
G1 X88.688 Y150.814 E152.21365
G1 X89.466 Y151.076 E152.28573
G1 X89.6 Y151.107 E152.29781
G1 X89.6 Y68.898 E159.51631
G0 F600 X89.6 Y68.898 Z0.46
G0 F7200 X116.245 Y75.233
;TIME_ELAPSED:97.559659

;LAYER:-3
;TYPE:SUPPORT
G1 F1800 X109.524 Y68.512 E160.21181
G1 X109.644 Y68.54 E160.22083
G1 X110.456 Y68.812 E160.28349
G1 X111.228 Y69.15 E160.34515
G1 X112 Y69.574 E160.4096
G1 X112.004 Y69.577 E160.40997
G1 X115.168 Y72.742 E160.73743
G1 X115.475 Y73.262 E160.78162
G1 X115.857 Y74.072 E160.84715
G1 X116.15 Y74.872 E160.90949
G1 X116.373 Y75.709 E160.97287
G1 X116.516 Y76.521 E161.0332
G1 X116.545 Y76.947 E161.06445
G1 X107.805 Y68.207 E161.96887
G1 X107.05 Y68.167 E162.02419
G1 X106.35 Y68.167 E162.07542
G1 X116.6 Y78.416 E163.13605
G1 X116.6 Y79.83 E163.23951
G1 X104.936 Y68.167 E164.44647
G1 X103.521 Y68.166 E164.55
G1 X116.6 Y81.245 E165.90344
G1 X116.6 Y82.659 E166.0069
G1 X102.107 Y68.166 E167.50666
G1 X100.692 Y68.165 E167.61019
G1 X116.631 Y84.104 E169.25958
G1 X116.692 Y85.192 E169.33932
G1 X116.691 Y85.578 E169.36756
G1 X99.278 Y68.165 E171.16948
G1 X97.863 Y68.165 E171.27302
G1 X116.691 Y86.992 E173.22131
G1 X116.691 Y88.406 E173.32478
G1 X96.449 Y68.165 E175.4194
G1 X95.035 Y68.165 E175.52286
G1 X116.691 Y89.82 E177.7638
G1 X116.691 Y91.235 E177.86734
G1 X93.62 Y68.164 E180.25475
G1 X92.206 Y68.164 E180.35822
G1 X116.691 Y92.649 E182.89196
G1 X116.691 Y94.063 E182.99542
G1 X90.868 Y68.241 E185.66757
G1 X90.766 Y68.248 E185.67505
G1 X89.946 Y68.392 E185.73597
G1 X89.677 Y68.464 E185.75635
G1 X116.691 Y95.477 E188.55174
G1 X116.691 Y96.892 E188.65528
G1 X88.6 Y68.801 E191.56217
G1 X88.309 Y68.908 E191.58485
G1 X87.618 Y69.233 E191.64073
G1 X116.691 Y98.306 E194.64924
G1 X116.691 Y99.72 E194.75271
G1 X86.723 Y69.753 E197.85378
G1 X86.091 Y70.205 E197.91064
G1 X85.913 Y70.357 E197.92776
G1 X116.691 Y101.134 E201.11266
G1 X116.691 Y102.548 E201.21612
G1 X85.174 Y71.032 E204.47749
G1 X84.819 Y71.4 E204.5149
G1 X84.509 Y71.781 E204.55084
G1 X116.691 Y103.963 E207.88108
G1 X116.691 Y105.377 E207.98454
G1 X83.918 Y72.604 E211.37594
G1 X83.811 Y72.765 E211.39008
G1 X83.403 Y73.503 E211.45178
G1 X116.691 Y106.791 E214.89647
G1 X116.691 Y108.205 E214.99993
G1 X82.983 Y74.498 E218.48803
G1 X82.775 Y75.128 E218.53657
G1 X82.662 Y75.591 E218.57145
G1 X116.691 Y109.619 E222.09276
G1 X116.69 Y111.033 E222.19623
G1 X82.452 Y76.796 E225.73916
G1 X82.451 Y76.819 E225.74085
G1 X82.404 Y77.715 E225.8065
G1 X82.402 Y78.16 E225.83906
G1 X116.69 Y112.447 E229.38718
G1 X116.69 Y113.861 E229.49064
G1 X82.402 Y79.574 E233.03876
G1 X82.402 Y80.988 E233.14222
G1 X116.69 Y115.276 E236.69039
G1 X116.69 Y116.69 E236.79385
G1 X82.402 Y82.402 E240.34202
G1 X82.401 Y83.816 E240.44548
G1 X116.69 Y118.104 E243.9937
G1 X116.69 Y119.518 E244.09717
G1 X82.401 Y85.23 E247.64538
G1 X82.401 Y86.644 E247.74885
G1 X116.69 Y120.932 E251.29707
G1 X116.69 Y122.347 E251.4006
G1 X82.401 Y88.058 E254.94887
G1 X82.401 Y89.472 E255.05234
G1 X116.69 Y123.761 E258.60061
G1 X116.69 Y125.175 E258.70407
G1 X82.401 Y90.886 E262.25234
G1 X82.401 Y92.3 E262.35581
G1 X116.69 Y126.589 E265.90408
G1 X116.69 Y128.004 E266.00762
G1 X82.401 Y93.714 E269.55594
G1 X82.4 Y95.128 E269.6594
G1 X116.69 Y129.418 E273.20777
G1 X116.69 Y130.832 E273.31124
G1 X82.4 Y96.542 E276.85961
G1 X82.4 Y97.956 E276.96308
G1 X116.69 Y132.246 E280.51145
G1 X116.69 Y133.66 E280.61492
G1 X82.4 Y99.371 E284.16324
G1 X82.401 Y100 E284.20926
G1 X82.457 Y100.842 E284.27101
G1 X116.68 Y135.065 E287.81245
G1 X116.604 Y136.403 E287.91051
G1 X82.764 Y102.563 E291.41232
G1 X82.852 Y102.892 E291.43724
G1 X83.145 Y103.692 E291.49958
G1 X83.527 Y104.502 E291.56511
G1 X83.869 Y105.082 E291.61437
G1 X116.6 Y137.813 E295.00142
G1 X116.599 Y139.227 E295.10488
G1 X86.057 Y108.685 E298.26541
G1 X86.151 Y109.072 E298.29455
G1 X86.224 Y109.752 E298.34459
G1 X86.213 Y110.255 E298.38141
G1 X116.599 Y140.64 E301.52574
G1 X116.598 Y142.054 E301.6292
G1 X86.013 Y111.469 E304.79418
G1 X85.931 Y111.767 E304.81679
G1 X85.666 Y112.397 E304.8668
G1 X85.614 Y112.484 E304.87422
G1 X116.52 Y143.39 E308.07241
G1 X116.423 Y144.048 E308.12108
G1 X116.296 Y144.58 E308.1611
G1 X85.049 Y113.333 E311.39458
G1 X84.422 Y114.121 E311.46827
G1 X115.964 Y145.662 E314.73222
G1 X115.956 Y145.685 E314.734
G1 X115.611 Y146.47 E314.79674
G1 X115.521 Y146.634 E314.81043
G1 X83.841 Y114.954 E318.08872
G1 X83.811 Y115.001 E318.0928
G1 X83.391 Y115.766 E318.15666
G1 X83.344 Y115.871 E318.16507
G1 X114.996 Y147.523 E321.44046
G1 X114.7 Y147.962 E321.47921
G1 X114.396 Y148.337 E321.51453
G1 X82.936 Y116.877 E324.77005
G1 X82.775 Y117.364 E324.80758
G1 X82.626 Y117.982 E324.8541
G1 X113.72 Y149.075 E328.07169
G1 X113.577 Y149.224 E328.0868
G1 X112.972 Y149.741 E328.14503
G1 X82.442 Y119.212 E331.30427
G1 X82.404 Y119.951 E331.35841
G1 X82.403 Y120.587 E331.40495
G1 X112.146 Y150.33 E334.48279
G1 X111.503 Y150.71 E334.53744
G1 X111.238 Y150.836 E334.55891
G1 X82.403 Y122.001 E337.5428
G1 X82.403 Y123.415 E337.64626
G1 X110.239 Y151.251 E340.52677
G1 X109.897 Y151.384 E340.55362
G1 X109.153 Y151.58 E340.60991
G1 X82.403 Y124.829 E343.37809
G1 X82.402 Y126.243 E343.48156
G1 X107.931 Y151.771 E346.12328
G1 X107.008 Y151.836 E346.19098
G1 X106.58 Y151.834 E346.2223
G1 X82.402 Y127.657 E348.72422
G1 X82.402 Y129.071 E348.82768
G1 X105.165 Y151.834 E351.18323
G1 X103.751 Y151.834 E351.28669
G1 X82.402 Y130.485 E353.49591
G1 X82.401 Y131.899 E353.59938
G1 X102.336 Y151.834 E355.66228
G1 X100.922 Y151.834 E355.76574
G1 X82.401 Y133.313 E357.68232
G1 X82.401 Y134.727 E357.78579
G1 X99.508 Y151.834 E359.55604
G1 X98.093 Y151.833 E359.65958
G1 X82.401 Y136.142 E361.28336
G1 X82.401 Y137.555 E361.38675
G1 X96.679 Y151.833 E362.86425
G1 X95.264 Y151.832 E362.96779
G1 X82.401 Y138.969 E364.29887
G1 X82.401 Y140.384 E364.40241
G1 X93.85 Y151.832 E365.58712
G1 X92.435 Y151.832 E365.69065
G1 X82.401 Y141.798 E366.72898
G1 X82.401 Y142.237 E366.76111
G1 X82.471 Y143.282 E366.83774
G1 X90.96 Y151.771 E367.7162
G1 X90.198 Y151.662 E367.77252
G1 X89.358 Y151.461 E367.83572
G1 X89.172 Y151.397 E367.85011
G1 X82.832 Y145.058 E368.50613
G1 X82.852 Y145.13 E368.5116
G1 X83.145 Y145.93 E368.57394
G1 X83.527 Y146.74 E368.63947
G1 X83.947 Y147.453 E368.70002
G1 X84.444 Y148.151 E368.76272
G1 X85.018 Y148.818 E368.82711
G1 X85.634 Y149.415 E368.88988
G1 X86.288 Y149.946 E368.95152
G1 X86.343 Y149.983 E368.95637
G1 X84.279 Y147.918 E369.17001
G0 F600 X84.279 Y147.918 Z0.61
G0 F7200 X82.665 Y145.201
;TIME_ELAPSED:197.798450

;LAYER:-2
;TYPE:SUPPORT-INTERFACE
G1 F2400 X82.81 Y145.6 E369.1806
G1 X116.193 Y145.6 E370.01334
G1 X116.136 Y145.773 E370.01789
G1 X116.034 Y146 E370.02409
G1 X82.957 Y146 E370.8492
G1 X82.965 Y146.019 E370.84972
G1 X83.144 Y146.4 E370.86022
G1 X115.858 Y146.4 E371.67627
G1 X115.784 Y146.572 E371.68094
G1 X115.657 Y146.8 E371.68745
G1 X83.333 Y146.8 E372.49378
G1 X83.343 Y146.819 E372.49431
G1 X83.565 Y147.2 E372.50531
G1 X115.438 Y147.2 E373.30039
G1 X115.368 Y147.33 E373.30407
G1 X115.185 Y147.6 E373.31221
G1 X83.804 Y147.6 E374.09501
G1 X84.09 Y148 E374.10728
G1 X114.915 Y148 E374.87621
G1 X114.868 Y148.072 E374.87835
G1 X114.601 Y148.4 E374.88891
G1 X84.394 Y148.4 E375.64242
G1 X84.737 Y148.8 E375.65557
G1 X114.266 Y148.8 E376.39217
G1 X113.878 Y149.2 E376.40607
G1 X85.124 Y149.2 E377.12334
G1 X85.49 Y149.554 E377.13604
G1 X85.545 Y149.6 E377.13783
G1 X113.445 Y149.6 E377.8338
G1 X113.044 Y149.945 E377.847
G1 X112.966 Y150 E377.84938
G1 X86.036 Y150 E378.52115
G1 X86.178 Y150.114 E378.52569
G1 X86.602 Y150.4 E378.53845
G1 X112.406 Y150.4 E379.18213
G1 X112.335 Y150.452 E379.18433
G1 X111.741 Y150.8 E379.2015
G1 X87.261 Y150.8 E379.81216
G1 X87.658 Y151.017 E379.82344
G1 X88.073 Y151.2 E379.83476
G1 X110.933 Y151.2 E380.405
G1 X110.782 Y151.272 E380.40918
G1 X109.964 Y151.572 E380.43091
G1 X109.863 Y151.6 E380.43352
G1 X89.142 Y151.6 E380.95041
G1 X89.295 Y151.651 E380.95443
G1 X90.146 Y151.855 E380.97626
G1 X91.026 Y151.985 E380.99845
G1 X91.943 Y152.034 E381.02136
G1 X107.014 Y152.036 E381.39731
G1 X107.539 Y152 E381.41044
G1 X91.305 Y152 E381.81539
G0 F7200 X82.663 Y145.2
G1 F2400 X116.327 Y145.2 E382.65515
G1 X116.415 Y144.942 E382.66195
G1 X116.447 Y144.8 E382.66558
G1 X82.556 Y144.8 E383.51099
G1 X82.449 Y144.4 E383.52132
G1 X116.543 Y144.4 E384.3718
G1 X116.622 Y144.077 E384.38009
G1 X116.632 Y144 E384.38203
G1 X82.374 Y144 E385.2366
G1 X82.304 Y143.6 E385.24673
G1 X116.69 Y143.6 E386.10449
G1 X116.749 Y143.208 E386.11438
G1 X116.748 Y143.2 E386.11458
G1 X82.265 Y143.2 E386.97476
G1 X82.238 Y142.8 E386.98476
G1 X116.769 Y142.8 E387.84614
G1 X116.791 Y142.4 E387.85614
G1 X82.211 Y142.4 E388.71874
G1 X82.201 Y142.237 E388.72281
G1 X82.201 Y142 E388.72872
G1 X116.797 Y142 E389.59173
G1 X116.797 Y141.6 E389.6017
G1 X82.201 Y141.6 E390.4647
G1 X82.201 Y141.2 E390.47468
G1 X116.797 Y141.2 E391.33768
G1 X116.797 Y140.8 E391.34766
G1 X82.201 Y140.8 E392.21066
